public/assets/images/education-+-outreach.svg

<svg viewBox="0 0 100 100" xmlns="http://www.w3.org/2000/svg"><path d="m86.35 46.68-10.27-9.37v-16.31a1 1 0 0 0 -1-1h-8.71a1 1 0 0 0 -1 1v6.66l-13-12a3.65 3.65 0 0 0 -4.85 0l-33.86 31.02a1.94 1.94 0 0 0 1.34 3.38h5.09l29.91-27.96 29.93 28h5.07a1.93 1.93 0 0 0 1.35-3.42z" fill="#e7c55b"/><path d="m76.49 76.78h-.49v-26.48l-26-24.3-26.06 24.3v26.48h-.94a1.26 1.26 0 0 0 -1.28 1.22v5.1a1.26 1.26 0 0 0 1.28 1.25h53.4a1.27 1.27 0 0 0 1.24-1.24v-5.11a1.1 1.1 0 0 0 -1.15-1.22z" fill="#e7c55b"/><path d="m33.94 67.54c0-3.74 1.78-6.27 5.24-6.83a3.14 3.14 0 0 0 2.06-1.22l.18-.09a7.49 7.49 0 0 1 -5.05-7 7.35 7.35 0 0 1 7.39-7.4h.24a7.56 7.56 0 0 1 7.11 7 7.31 7.31 0 0 1 -5 7.39l.19.09a2.67 2.67 0 0 0 2.05 1.22c3.46.56 5.24 3.09 5.24 6.83v5.14a2 2 0 0 1 -2 2h-15.68a2 2 0 0 1 -2-2z" fill="#fff"/><path d="m48.14 68.64c0-3.59 1.7-6 5-6.55a3.07 3.07 0 0 0 2-1.16l.18-.09a7.18 7.18 0 0 1 -4.85-6.74 7 7 0 0 1 7.09-7.1h.27a7.25 7.25 0 0 1 6.82 6.73 7 7 0 0 1 -4.85 7.1l.18.09a2.62 2.62 0 0 0 2 1.16c3.32.54 5 3 5 6.55v4.94a1.9 1.9 0 0 1 -1.89 1.89h-15.09a1.89 1.89 0 0 1 -1.88-1.89z" fill="#fff"/><path d="m48.53 68.39c0-3.29 1.56-5.51 4.6-6a2.75 2.75 0 0 0 1.81-1.07l.17-.08a6.58 6.58 0 0 1 -4.44-6.17 6.44 6.44 0 0 1 6.49-6.49h.25a6.64 6.64 0 0 1 6.25 6.16 6.44 6.44 0 0 1 -4.44 6.5l.16.08a2.38 2.38 0 0 0 1.81 1.07c3 .49 4.61 2.71 4.61 6v4.53a1.73 1.73 0 0 1 -1.73 1.72h-13.82a1.73 1.73 0 0 1 -1.72-1.72z" fill="#98c3d1"/><path d="m36.19 66.55c0-3.39 1.61-5.68 4.75-6.19a2.88 2.88 0 0 0 1.87-1.1l.17-.08a6.8 6.8 0 0 1 -4.58-6.36 6.66 6.66 0 0 1 6.7-6.7h.25a6.86 6.86 0 0 1 6.45 6.36 6.67 6.67 0 0 1 -4.58 6.7l.17.08a2.42 2.42 0 0 0 1.86 1.1c3.14.51 4.75 2.8 4.75 6.19v4.67a1.79 1.79 0 0 1 -1.78 1.78h-14.22a1.79 1.79 0 0 1 -1.78-1.78z" fill="#568095"/></svg>

<svg xmlns="http://www.w3.org/2000/svg" viewBox="0 0 100 100"><defs><style>.cls-1{isolation:isolate;}.cls-2,.cls-5,.cls-6{mix-blend-mode:multiply;}.cls-3{fill:#e7c55b;}.cls-4{fill:#fff;}.cls-5{fill:#98c3d1;}.cls-6{fill:#568095;}</style></defs><title>icons</title><g class="cls-1"><g id="Layer_1" data-name="Layer 1"><g class="cls-2"><path class="cls-3" d="M86.35,46.68,76.08,37.31V21a1,1,0,0,0-1-1H66.37a1,1,0,0,0-1,1v6.66l-13-12a3.65,3.65,0,0,0-4.85,0L13.66,46.68A1.94,1.94,0,0,0,15,50.06h5.09L50,22.1l29.93,28H85A1.93,1.93,0,0,0,86.35,46.68Z"/><path class="cls-3" d="M76.49,76.78H76V50.3L50,26,23.94,50.3V76.78H23A1.26,1.26,0,0,0,21.72,78v5.1A1.26,1.26,0,0,0,23,84.35H76.4a1.27,1.27,0,0,0,1.24-1.24V78A1.1,1.1,0,0,0,76.49,76.78Z"/></g><path class="cls-4" d="M33.94,67.54c0-3.74,1.78-6.27,5.24-6.83a3.14,3.14,0,0,0,2.06-1.22l.18-.09a7.49,7.49,0,0,1-5.05-7A7.35,7.35,0,0,1,43.76,45H44a7.56,7.56,0,0,1,7.11,7,7.31,7.31,0,0,1-5,7.39l.19.09a2.67,2.67,0,0,0,2.05,1.22c3.46.56,5.24,3.09,5.24,6.83v5.14a2,2,0,0,1-2,2H35.91a2,2,0,0,1-2-2Z"/><path class="cls-4" d="M48.14,68.64c0-3.59,1.7-6,5-6.55a3.07,3.07,0,0,0,2-1.16l.18-.09a7.18,7.18,0,0,1-4.85-6.74A7,7,0,0,1,57.56,47h.27a7.25,7.25,0,0,1,6.82,6.73,7,7,0,0,1-4.85,7.1l.18.09a2.62,2.62,0,0,0,2,1.16c3.32.54,5,3,5,6.55v4.94a1.9,1.9,0,0,1-1.89,1.89H50a1.89,1.89,0,0,1-1.88-1.89Z"/><path class="cls-5" d="M48.53,68.39c0-3.29,1.56-5.51,4.6-6a2.75,2.75,0,0,0,1.81-1.07l.17-.08a6.58,6.58,0,0,1-4.44-6.17,6.44,6.44,0,0,1,6.49-6.49h.25a6.64,6.64,0,0,1,6.25,6.16,6.44,6.44,0,0,1-4.44,6.5l.16.08a2.38,2.38,0,0,0,1.81,1.07c3,.49,4.61,2.71,4.61,6v4.53a1.73,1.73,0,0,1-1.73,1.72H50.25a1.73,1.73,0,0,1-1.72-1.72Z"/><path class="cls-6" d="M36.19,66.55c0-3.39,1.61-5.68,4.75-6.19a2.88,2.88,0,0,0,1.87-1.1l.17-.08a6.8,6.8,0,0,1-4.58-6.36,6.66,6.66,0,0,1,6.7-6.7h.25a6.86,6.86,0,0,1,6.45,6.36,6.67,6.67,0,0,1-4.58,6.7l.17.08a2.42,2.42,0,0,0,1.86,1.1c3.14.51,4.75,2.8,4.75,6.19v4.67A1.79,1.79,0,0,1,52.22,73H38a1.79,1.79,0,0,1-1.78-1.78Z"/></g></g></svg>
